X:1
T:Title
%%score { ( 1 4 ) | ( 2 3 ) }
L:1/8
M:3/4
K:Ab
V:1 treble nm="Grand Piano"
V:4 treble 
V:2 bass 
V:3 bass 
V:1
 z2 z2[Q:1/4=100] [Ec][Fd] | [Ec]3 [CA] [Ec]>[DB] | [CA]2 [CE]2 [DF][DG] | [CA]3 [Ec] [Ac]>[Ac] | %4
 [GB]4 [Ac][Fd] | [Ec]3 [CA] [Ec]>[DB] | [CA]2 [CE]2 [DF][DG] | [CA][Fd] [Ec]3 [DB] | [CA]6 | %9
[M:4/4] [CE]cBc [CA]4 | [CE]cBc [CA]4 | G2 GA B2 E2 | E3 [A,DF] [CE]4 | [CE]cBc [A,CA]2 [CE]2 | %14
 [CE]cBc [CA]4 | FGA[Fd] c2 B>B | A2- [FA-]2 [EA]4 |] %17
V:2
 z2 z2 [A,,A,][A,,A,] | [A,,A,]3 [A,,A,] [A,,A,]>[A,,A,] | [A,,E,]2 [A,,A,]2 [D,A,][B,,E,] | %3
 [A,,E,]3 [A,,A,] E,>E, | E,4 [A,,E,][A,,A,] | [A,,A,]3 [A,,A,] [A,,A,]>[A,,A,] | %6
 [A,,E,]2 [A,,A,]2 [D,A,][B,,B,] | [F,A,][D,A,] [E,A,]3 [E,G,] | [A,,A,]6 | %9
[M:4/4] z E[E,G,D][E,G,E] [A,,A,]4 | z E[E,G,D][E,G,E] [A,,A,]4 | %11
 [E,B,D]2 [E,B,D][E,A,C] [E,G,D]2 [E,B,D]2 | C3 A,, [A,,A,]4 | z E[E,G,D][E,G,E] A,,2 A,,2 | %14
 z E[E,G,D][E,G,E] [A,,A,]4 | D-[B,,B,D][F,A,C][D,A,] [E,A,E]2 [E,G,D]>[E,G,D] | z2 D2 C4 |] %17
V:3
 x6 | x6 | x6 | x6 | x6 | x6 | x6 | x6 | x6 |[M:4/4] [A,,A,]2 z2 z4 | [A,,A,]2 z2 z4 | x8 | x8 | %13
 [A,,A,]2 z2 z4 | [A,,A,]2 z2 z4 | .[D,A,]2 z2 z4 | A,,8 |] %17
V:4
 x6 | x6 | x6 | x6 | x6 | x6 | x6 | x6 | x6 |[M:4/4] x8 | x8 | x8 | x8 | x8 | x8 | x8 | %16
 [A,C]2 z2 z4 |] %17

